!! 00000] TT[00
!! NN
!!!OTL: Tuhuang luozi tuo jiuli
!!!ARE: Asia, China,ÿGansu, Zhuanglang
!! Ethnic Group: Han, Hui
!! I, 131, 1)
!!!SCT: C0040
!!!YEM: Copyright 1995, estate of Helmut Schaffrath.
**kern
*ICvox
*Ivox
*M2/4
*k[b-e-]
*B-:
{8bb-
8gg
4ff
=1
8bb-
8gg
8ff
8bb-}
=2
{16ccc
16fff
16ccc
16bb-
8gg
8ff
=3
4.ff
16bb-
16ccc}
=4
{8fff
16bbb-
16ggg
8fff
8eee-
=5
4fff
8ccc
8bb-}
=6
{16ccc
16ddd
16ccc
16bb-
8gg
[8ff
=7
4ff]
4ff}
==
!!!AGN: Shange, Huar
!!!ONB: ESAC (Essen Associative Code) Database: CHINA
!!!AMT: simple duple
!!!AIN: vox
!!!EED: Helmut Schaffrath
!!!EEV: 1.0
*-
!!!ONB: Tied note syntax fixed by Craig Sapp, 2004/05/03/
